packages/calcite-ui-icons/icons/mosaic-method-none-16.svg

<?xml version="1.0" encoding="UTF-8"?><svg id="icons" xmlns="http://www.w3.org/2000/svg" viewBox="0 0 16 16"><defs><style>.cls-1{fill:none;}</style></defs><path d="M15.32617,12.38232l-2.80859,2.80908-2.80957-2.80908.70703-.70703,1.58496,1.58459V5h1v8.2948l1.61914-1.61951.70703.70703ZM11,10H0V0h12v4h-4v2h3v1h-3v2h3v1ZM7,4h-3v2h3v-2ZM1,3h10V1H1v2ZM1,6h2v-2H1v2ZM3,9v-2H1v2h2ZM7,9v-2h-3v2h3Z"/><rect class="cls-1" width="16" height="16"/></svg>

<svg xmlns="http://www.w3.org/2000/svg" viewBox="0 0 16 16"><path d="M15.326 12.382l-2.808 2.81-2.81-2.81.707-.707L12 13.26V5h1v8.295l1.62-1.62.706.707zM11 10H0V0h12v4H8v2h3v1H8v2h3v1zM7 4H4v2h3V4zM1 3h10V1H1v2zm0 3h2V4H1v2zm2 3V7H1v2h2zm4 0V7H4v2h3z"/><path fill="none" d="M0 0h16v16H0z"/></svg>
